icons/pregnant.svg

<svg width="48" height="48" viewBox="0 0 48 48" fill="none" xmlns="http://www.w3.org/2000/svg">
<path fill-rule="evenodd" clip-rule="evenodd" d="M24.574 11C25.9547 11 27.074 9.88071 27.074 8.5C27.074 7.11929 25.9547 6 24.574 6C23.1933 6 22.074 7.11929 22.074 8.5C22.074 9.88071 23.1933 11 24.574 11ZM24.574 13C27.0593 13 29.074 10.9853 29.074 8.5C29.074 6.01472 27.0593 4 24.574 4C22.0887 4 20.074 6.01472 20.074 8.5C20.074 10.9853 22.0887 13 24.574 13Z" fill="black"/>
<path fill-rule="evenodd" clip-rule="evenodd" d="M20.1535 15.3065C20.4267 15.1874 20.9327 15 21.574 15H23.574C24.145 15 24.6014 15.1643 24.7246 15.2086L24.7327 15.2115C24.933 15.2835 25.1184 15.3671 25.2714 15.4416C25.5836 15.5936 25.9252 15.7884 26.2749 16.0088C26.9808 16.4536 27.843 17.0806 28.7434 17.8729C30.5209 19.4371 32.627 21.8048 33.8594 24.8858C34.6426 26.8438 34.5872 28.7332 33.8585 30.3777C33.177 31.9159 32.0231 32.9814 31.041 33.675C27.9911 35.829 27.848 37.2291 27.072 41.1087C27.0148 42.7152 25.6944 44 24.074 44C22.4171 44 21.074 42.6569 21.074 41C21.074 35.8673 21.0716 32.8134 20.8397 29.9253C19.5344 30.8767 17.7005 30.6238 16.7037 29.3389C16.4607 29.0258 15.7882 28.0796 15.1877 27.1692C14.8835 26.7081 14.5629 26.2037 14.3086 25.7575C14.1841 25.539 14.0465 25.2842 13.9312 25.028C13.8738 24.9005 13.8014 24.7275 13.7385 24.529C13.6894 24.3742 13.574 23.9883 13.574 23.5C13.574 22.7844 13.8347 22.228 13.8915 22.1067L13.8922 22.1053L13.8929 22.1038L13.8947 22.1C13.9893 21.8945 14.0951 21.7097 14.1789 21.5706C14.3518 21.284 14.5664 20.9715 14.7854 20.6694C15.2309 20.0545 15.8141 19.3184 16.4212 18.6101C17.0216 17.9096 17.6997 17.1727 18.3346 16.5859C18.6462 16.298 19.0126 15.9851 19.3997 15.7252C19.5939 15.5948 19.8508 15.4386 20.1535 15.3065ZM21.574 17C20.839 17 20.1994 17.5858 19.6921 18.0547C19.1367 18.568 18.5148 19.2407 17.9397 19.9117C17.3623 20.5853 16.8138 21.2786 16.4048 21.8429C16.1534 22.1899 15.8913 22.546 15.711 22.9372C15.6295 23.1141 15.574 23.3039 15.574 23.5C15.574 23.9569 15.8275 24.3834 16.0463 24.7673C16.2689 25.158 16.5621 25.6207 16.8572 26.0679C17.4447 26.9585 18.0855 27.8573 18.2839 28.113C18.6224 28.5493 19.2506 28.6286 19.687 28.2901C20.1233 27.9516 20.2026 27.3234 19.8641 26.887C19.7103 26.6888 19.1011 25.8375 18.5267 24.9666C18.3293 24.6674 18.1431 24.3766 17.9849 24.1169L17.6385 23.5483L18.0294 23.0094C18.4013 22.4968 18.913 21.8493 19.4582 21.2133C19.581 21.0701 19.704 20.9291 19.8261 20.7919L21.1638 19.2881L21.5543 21.2625C23.0661 28.9082 23.074 31.4231 23.074 41C23.074 41.5523 23.5217 42 24.074 42C24.6952 42 25.074 41.479 25.074 40.901C25.8902 36.8201 26.369 34.5261 29.8872 32.0413C30.7024 31.4656 31.5475 30.6563 32.03 29.5674C32.5281 28.4433 32.597 27.115 32.0025 25.6286C30.925 22.935 29.0563 20.8124 27.4221 19.3743C26.6012 18.6519 25.8242 18.0887 25.2087 17.7008C24.8441 17.4711 24.4643 17.2402 24.0567 17.0938C23.9017 17.0381 23.7394 17 23.574 17H21.574Z" fill="black"/>
</svg>

<svg
  xmlns="http://www.w3.org/2000/svg"
  width="24"
  height="24"
  viewBox="0 0 24 24"
  fill="none"
  stroke="currentColor"
  stroke-width="2"
  stroke-linecap="round"
  stroke-linejoin="round"
>
  <path
    fill-rule="evenodd"
    d="M24.574 11a2.5 2.5 0 1 0 0-5 2.5 2.5 0 0 0 0 5m0 2a4.5 4.5 0 1 0 0-9 4.5 4.5 0 0 0 0 9"
    clip-rule="evenodd"
  />
  <path
    fill-rule="evenodd"
    d="M20.154 15.307c.273-.12.779-.307 1.42-.307h2c.571 0 1.027.164 1.15.209l.009.002c.2.072.385.156.538.23.313.153.654.347 1.004.568a20 20 0 0 1 2.468 1.864c1.778 1.564 3.884 3.932 5.116 7.013.784 1.958.728 3.847 0 5.492-.682 1.538-1.836 2.603-2.818 3.297-3.05 2.154-3.193 3.554-3.969 7.434A3 3 0 0 1 21.074 41c0-5.133-.002-8.187-.234-11.075a3 3 0 0 1-4.136-.586 46 46 0 0 1-1.516-2.17 27 27 0 0 1-.88-1.412 9 9 0 0 1-.377-.729c-.057-.127-.13-.3-.192-.499a3.4 3.4 0 0 1-.165-1.029c0-.716.26-1.272.318-1.393v-.003l.003-.004c.094-.206.2-.39.284-.53.173-.286.387-.599.606-.9a34 34 0 0 1 1.636-2.06c.6-.7 1.279-1.437 1.914-2.024.311-.288.678-.6 1.065-.86.194-.131.45-.287.754-.42M21.574 17c-.735 0-1.375.586-1.882 1.055-.555.513-1.177 1.186-1.752 1.857a32 32 0 0 0-1.535 1.93c-.252.348-.514.704-.694 1.095a1.35 1.35 0 0 0-.137.563c0 .457.254.883.472 1.267.223.391.516.854.811 1.3a45 45 0 0 0 1.427 2.046 1 1 0 0 0 1.58-1.226 44 44 0 0 1-1.88-2.77l-.346-.569.391-.539a30 30 0 0 1 1.797-2.217l1.338-1.504.39 1.974c1.512 7.646 1.52 10.161 1.52 19.738a1 1 0 0 0 1 1c.621 0 1-.521 1-1.099.816-4.08 1.295-6.375 4.813-8.86.815-.575 1.66-1.385 2.143-2.474.498-1.124.567-2.452-.028-3.938-1.077-2.694-2.946-4.817-4.58-6.255a18 18 0 0 0-2.213-1.673c-.365-.23-.745-.46-1.152-.607a1.4 1.4 0 0 0-.483-.094z"
    clip-rule="evenodd"
  />
</svg>
